X: 8
T: Missa Ave regina celorum / Credo
N: Derived from Obr1002c-Missa_Ave_regina_celorum-Credo.krn
C: Jacob Obrecht
%%abc-version 2.0
%%abcx-abcm2ps-target-version 5.9.1 (29 Sep 2008)
%%abc-creator hum2abc beta
%%abcx-conversion-date 2019/02/17 07:23:44
%%abc-edited-by Jesse Rodin
%%abc-edited-by Jesse Rodin 8/27/2013
%%abcx-initial-encoding-date 2013/08/27/
%%humdrum-veritas 2674076593
%%humdrum-veritas-data 3054192996
%%linebreak <none>
%%barnumbers 0
L: 1/4
M: 3/1
Q: 1/2=120
%%staves [1 2 3 4]
V: 1 clef=treble
V: 2 clef=treble-8
V: 3 clef=treble-8
V: 4 clef=bass
K: F
[V:1] c8c4- | 
[V:2] f12 | 
[V:3] z12 | 
[V:4] z12 | 
[V:1] c2A4F2F4 | 
[V:2] f6d4B2 | 
[V:3] z12 | 
[V:4] z12 | 
[V:1] G2B2A2G2F4 | 
[V:2] B4c2_e2d3c | 
[V:3] z12 | 
[V:4] z12 | 
[V:1] z2G2(3A2B2c2(3B2A2G2 | 
[V:2] B4z2c2d2e2 | 
[V:3] z12 | 
[V:4] z12 | 
[V:1] A8z4 | 
[V:2] f12 | 
[V:3] z12 | 
[V:4] z12 | 
[V:1] c4c4B4 | 
[V:2] z12 | 
[V:3] z12 | 
[V:4] z12 | 
[V:1] A8G3A | 
[V:2] f4f4e4 | 
[V:3] z12 | 
[V:4] z12 | 
[V:1] B2A4GFE2G2- | 
[V:2] d8c4 | 
[V:3] z12 | 
[V:4] z12 | 
[V:1] G2F3ED2C3D | 
[V:2] _e2d3cB2A2c2- | 
[V:3] z12 | 
[V:4] z12 | 
[V:1] EFG3ABcA2c2- | 
[V:2] c2B3AG2F3G | 
[V:3] z12 | 
[V:4] z12 | 
[V:1] cBA2G2F4E2 | 
[V:2] ABc4A2G4 | 
[V:3] z12 | 
[V:4] z12 | 
[V:1] F12 | 
[V:2] F4z4z4 | 
[V:3] c8c4- | 
[V:4] F,12 | 
[V:1] z12 | 
[V:2] z12 | 
[V:3] c2A4F2F4 | 
[V:4] F,6D,4B,,2 | 
[V:1] z12 | 
[V:2] z12 | 
[V:3] G2B2A2G2F4 | 
[V:4] B,,4C,2_E,2D,3C, | 
[V:1] z12 | 
[V:2] z12 | 
[V:3] z2G2(3A2B2c2(3B2A2G2 | 
[V:4] B,,4z2C,2D,2E,2 | 
[V:1] z12 | 
[V:2] z12 | 
[V:3] A8z4 | 
[V:4] F,12 | 
[V:1] z12 | 
[V:2] z12 | 
[V:3] c4c4B4 | 
[V:4] z12 | 
[V:1] z12 | 
[V:2] z12 | 
[V:3] A8G3A | 
[V:4] F,4F,4E,4 | 
[V:1] z12 | 
[V:2] z12 | 
[V:3] B2A3GF2E2G2- | 
[V:4] D,8C,3D, | 
[V:1] z12 | 
[V:2] z12 | 
[V:3] G2F3ED2C3D | 
[V:4] _E,2D,3C,B,,2A,,2C,2- | 
[V:1] z12 | 
[V:2] z12 | 
[V:3] EFG3ABcA2c2- | 
[V:4] C,2B,,3A,,G,,2F,,3G,, | 
[V:1] z4z4G4 | 
[V:2] z12 | 
[V:3] cBA2G2F4E2 | 
[V:4] A,,B,,C,4A,,2G,,4 | 
[V:1] A2c3BA2G4 | 
[V:2] c3de2f4e2 | 
[V:3] F4z4z4 | 
[V:4] F,,4z4z4 | 
[V:1] F4B4A4 | 
[V:2] f2d4g4f2 | 
[V:3] z12 | 
[V:4] z12 | 
[V:1] G2c4B2c4 | 
[V:2] e2c2d3c/B/ABcd | 
[V:3] z12 | 
[V:4] z12 | 
[V:1] G2A2G2c4=B2 | 
[V:2] e2f2g2e2d4 | 
[V:3] z12 | 
[V:4] z12 | 
[V:1] c4z4z4 | 
[V:2] c4z4z4 | 
[V:3] c6A2G4 | 
[V:4] C,3D,E,2F,4E,2 | 
[V:1] z12 | 
[V:2] z12 | 
[V:3] F4B4A4 | 
[V:4] F,2D,4G,4F,2 | 
[V:1] z12 | 
[V:2] z12 | 
[V:3] G2c4B2c4 | 
[V:4] E,2C,2D,3C,/B,,/A,,B,,C,D, | 
[V:1] z12 | 
[V:2] z12 | 
[V:3] G2A2G2c4=B2 | 
[V:4] E,2F,2G,2E,2D,4 | 
[V:1] E4E2E4E2 | 
[V:2] G4G2G4G2 | 
[V:3] [M:3/0]c12 :
[V:4] C,4C,2C,4C,2 | 
[V:1] F4F2F4F2- | 
[V:2] d6c2d2B2 | 
[V:3] F12 | 
[V:4] B,,6A,,2B,,4 | 
[V:1] F2F2E2G3DE2 | 
[V:2] c4c4B2c2 | 
[V:3] A4G8 :
[V:4] F,,4C,4z2C,2 | 
[V:1] F2A3GFED2F2- | 
[V:2] A2DEFGA2B2F2 | 
[V:3] F8z4 | 
[V:4] D,2F,3E,D,C,B,,2D,2 | 
[V:1] F2E2F6G2 | 
[V:2] G4F4D4 | 
[V:3] c4A4B4 :
[V:4] C,4F,,4B,,4 | 
[V:1] A6G2c3B | 
[V:2] C2F4E2A2G2 | 
[V:3] c12- | 
[V:4] F,,3G,,A,,B,,C,3D,E,2 | 
[V:1] A2G2A2c3BA2 | 
[V:2] z2c3BAGF4 | 
[V:3] c8z4 :
[V:4] F,2E,2F,2A,3G,F,2- | 
[V:1] G4z2F2F2D2 | 
[V:2] C4c4d4 | 
[V:3] G4A4B4 | 
[V:4] F,2E,2F,4D,4 | 
[V:1] E3EE2E2E2F2 | 
[V:2] G2A4A2G2F2 | 
[V:3] c8z4 :
[V:4] C,2A,,2z2A,,2C,2D,2 | 
[V:1] GFEDC2E2D4 | 
[V:2] D4E2C2G4 | 
[V:3] G4A4B4 | 
[V:4] B,,4A,,4z4 | 
[V:1] C4z2F4E2 | 
[V:2] E6D2E2C2 | 
[V:3] c6B2G4 :
[V:4] A,,6B,,2C,4 | 
[V:1] FGABc3BA2G2- | 
[V:2] c4F2c3d_e2 | 
[V:3] F4A8- | 
[V:4] F,,4z2F,3E,C,2 | 
[V:1] G2^F2G8 | 
[V:2] d4B2d3cBA | 
[V:3] A4G8- :
[V:4] D,4G,,4z2G,2- | 
[V:1] z2G2E2F2G4 | 
[V:2] B2c4C2D2E2 | 
[V:3] G4z4B4 | 
[V:4] G,F,E,D,C,2A,,2G,,4 | 
[V:1] C4z2G2A4- | 
[V:2] F4C4z2c2 | 
[V:3] A4c8 :
[V:4] F,,2F,4E,2F,2F,,2- | 
[V:1] A2GFE2F4E2 | 
[V:2] c6d2c4 | 
[V:3] A4G8 | 
[V:4] F,,G,,A,,B,,C,2B,,2C,4 | 
[V:1] F2A3Bc3BGA | 
[V:2] A2c3BA2G2c2 | 
[V:3] z4F4E4 :
[V:4] z2F,,3G,,A,,B,,C,2_E,2 | 
[V:1] BA2G/F/E2F4E2 | 
[V:2] d2A2c4c4 | 
[V:3] F4G8 | 
[V:4] D,4C,8 | 
[V:1] F3GABc2A2d2- | 
[V:2] A2d3cA2f4 | 
[V:3] [M:3/1]F12- | 
[V:4] F,,4z2F,3E,D,C, | 
[V:1] d2c3BB4A2 | 
[V:2] d2f3ed2c4 | 
[V:3] F12 | 
[V:4] B,,2A,,2B,,2B,,2F,,4 | 
[V:1] B2d3cA2G2B2 | 
[V:2] B3A/G/F2f3ed2 | 
[V:3] z12 | 
[V:4] z12 | 
[V:1] A2B3AA4G2 | 
[V:2] c2d2A2c2B4 | 
[V:3] z12 | 
[V:4] z12 | 
[V:1] A8z4 | 
[V:2] A4c6B2 | 
[V:3] z12 | 
[V:4] z2F,4F,2_E,2D,2 | 
[V:1] z12 | 
[V:2] A2G2B3AF4 | 
[V:3] z12 | 
[V:4] C,2_E,3D,B,,4D,2- | 
[V:1] z12 | 
[V:2] A6G2F2E2 | 
[V:3] z12 | 
[V:4] D,2D,2C,2B,,2A,,2C,2- | 
[V:1] z12 | 
[V:2] G3FD3EF2CD | 
[V:3] z12 | 
[V:4] C,B,,G,,3A,,B,,2F,,G,,A,,B,, | 
[V:1] z12 | 
[V:2] EFG2D2F4E2 | 
[V:3] z4z4z2G2 | 
[V:4] C,2G,,2B,,2A,,2G,,4 | 
[V:1] [M:3/0]c12- :
[V:2] F3GA2F2z2G2 | 
[V:3] A2c2F2f4e2 | 
[V:4] F,,4z4C,4 | 
[V:1] c12 | 
[V:2] A2c2F2f4e2 | 
[V:3] f4z4z2G2 | 
[V:4] F,,4A,,3B,,C,4 | 
[V:1] c12 :
[V:2] f2F2A4G4 | 
[V:3] A2c2F2f4e2 | 
[V:4] F,,4z2F,,2C,4 | 
[V:1] A8B4 | 
[V:2] F3GA2F2z2f2- | 
[V:3] f3ec2d3cBA | 
[V:4] D,2F,3E,D,C,B,,4 | 
[V:1] d8c4 :
[V:2] fedcB2G2A2c2- | 
[V:3] B3A/G/F2D2E4 | 
[V:4] B,,4B,,4A,,4 | 
[V:1] A8G4 | 
[V:2] cBAGF2c4c2 | 
[V:3] F4C3DEFG2 | 
[V:4] z2F,,3G,,A,,B,,C,D,E,F, | 
[V:1] B4A6GF :
[V:2] B2d3cc4=B2 | 
[V:3] z2G2D2E2F3G | 
[V:4] G,4F,2C,2D,4 | 
[V:1] E12- | 
[V:2] c4G2c3BG2 | 
[V:3] A2G2E2A3GE2 | 
[V:4] C,8z2C,2- | 
[V:1] E12 :
[V:2] c3BA2G2c3B | 
[V:3] G2A2E3FG2A2- | 
[V:4] C,2A,,4C,3B,,A,,G,, | 
[V:1] z12 | 
[V:2] AGA2F2f4e2 | 
[V:3] ABc2A2F2G4 | 
[V:4] F,,2F,3E,D,2C,4 | 
[V:1] A12 :
[V:2] f3ec2A2c3B | 
[V:3] F2c2A2c3BAG | 
[V:4] F,,12- | 
[V:1] A12 | 
[V:2] AGF2A3Bc2A2 | 
[V:3] F2A3Bc2A2c2- | 
[V:4] F,,12 | 
[V:1] G12 :
[V:2] c3de2f4e2 | 
[V:3] cBG2z2c3BG2 | 
[V:4] C,8C,4 | 
[V:1] F8A4 | 
[V:2] f3ed2c2f4 | 
[V:3] A4F2A3Bc2- | 
[V:4] F,,4z2F,,3G,,A,,B,, | 
[V:1] G4c6B2 :
[V:2] _e4c4z2d2 | 
[V:3] cBG4_e4d2- | 
[V:4] C,4C,3D,_E,F,G,2 | 
[V:1] A4G6F2 | 
[V:2] f4_e4c4 | 
[V:3] dcd2B2c4A2 | 
[V:4] D,4_E,4F,4 | 
[V:1] F8E4 | 
[V:2] d4c8 | 
[V:3] B4G8 | 
[V:4] B,,4C,8 | 
[V:1] [M:3/1]F8z4 | 
[V:2] c2A4F2G4 | 
[V:3] F4z2f4e2 | 
[V:4] F,,2F,3E,D,2C,4 | 
[V:1] A4G2A2B4 | 
[V:2] FGABcFf4e2 | 
[V:3] f4z2c4B2 | 
[V:4] F,,2F,2E,2F,2G,4 | 
[V:1] A12 ||  
[V:2] f12 ||  
[V:3] c12 ||  
[V:4] F,12 ||  
[V:1]  [K:F] [K:clef=treble][M:2/1]E6FG | 
[V:2]  [K:F] [K:clef=treble-8][M:2/1]g8 | 
[V:3]  [K:F] [K:clef=treble-8][M:4/2]c8- :
[V:4]  [K:F] [K:clef=bass][M:2/1]C,8 | 
[V:1] A4E4 | 
[V:2] f4g4 | 
[V:3] c8 | 
[V:4] F,4C,4 | 
[V:1] F2D4C2 | 
[V:2] f4e4 | 
[V:3] A8 :
[V:4] D,4A,,4 | 
[V:1] D2F3EDC | 
[V:2] d8- | 
[V:3] F8 | 
[V:4] B,,4B,,3A,, | 
[V:1] B,2B3AGF | 
[V:2] d8 | 
[V:3] G8 :
[V:4] G,,4G,4 | 
[V:1] G4A4- | 
[V:2] z4d4 | 
[V:3] B4A4 | 
[V:4] G,4F,4 | 
[V:1] A2A2A4 | 
[V:2] f8 | 
[V:3] F8 :
[V:4] D,8 | 
[V:1] G4B4 | 
[V:2] e4d4 | 
[V:3] z4G4 | 
[V:4] z8 | 
[V:1] A6GF | 
[V:2] f6ef | 
[V:3] A4B4 :
[V:4] D,8 | 
[V:1] E4z2E2 | 
[V:2] g4g4 | 
[V:3] c8- | 
[V:4] C,4C,4 | 
[V:1] A4G4 | 
[V:2] f4e4 | 
[V:3] c8 :
[V:4] F,4C,4 | 
[V:1] F2B4A2 | 
[V:2] d4c4 | 
[V:3] z8 | 
[V:4] D,2B,,2F,4 | 
[V:1] B8 | 
[V:2] B8 | 
[V:3] f8 :
[V:4] B,,8 | 
[V:1] B4B4 | 
[V:2] d4d4 | 
[V:3] f8 | 
[V:4] B,,4B,,4 | 
[V:1] A2G4FE | 
[V:2] c8 | 
[V:3] e8 :
[V:4] C,8 | 
[V:1] F4B4 | 
[V:2] z8 | 
[V:3] d8 | 
[V:4] D,4B,,4 | 
[V:1] A3GE2F2- | 
[V:2] z8 | 
[V:3] c6B2 :
[V:4] F,4C,2D,2- | 
[V:1] FED4^C2 | 
[V:2] z8 | 
[V:3] A4G4 | 
[V:4] D,E,F,2E,4 | 
[V:1] D4E2C2- | 
[V:2] z8 | 
[V:3] F4E4 :
[V:4] D,4C,4 | 
[V:1] C2D2C2F2- | 
[V:2] z8 | 
[V:3] A8 | 
[V:4] F,8 | 
[V:1] F2EDE4 | 
[V:2] z8 | 
[V:3] G8 :
[V:4] C,4C,4 | 
[V:1] F4z4 | 
[V:2] d8 | 
[V:3] F8- | 
[V:4] D,2B,,2B,,4 | 
[V:1] F6G2 | 
[V:2] c4d4 | 
[V:3] F8- :
[V:4] z2F,,2B,,4 | 
[V:1] A4D4 | 
[V:2] c4B4 | 
[V:3] F8 | 
[V:4] A,,4B,,4 | 
[V:1] F8 | 
[V:2] A8 | 
[V:3] z4c4- :
[V:4] F,,8 | 
[V:1] _E4D4 | 
[V:2] G4F4 | 
[V:3] c4B4 | 
[V:4] C,4D,4 | 
[V:1] B,6C2 | 
[V:2] G3AB2G2 | 
[V:3] G8 :
[V:4] _E,8 | 
[V:1] D3EF4- | 
[V:2] A4d2c2 | 
[V:3] F8 | 
[V:4] D,3C,B,,2A,,2 | 
[V:1] F2EDD4 | 
[V:2] d3ef3e | 
[V:3] B8 :
[V:4] B,,8 | 
[V:1] z2F3GA2 | 
[V:2] d2c2d4 | 
[V:3] A8 | 
[V:4] F,4D,4 | 
[V:1] B3AGFE2 | 
[V:2] d4G2G2 | 
[V:3] G4c4- :
[V:4] B,,4C,4 | 
[V:1] C2F4E2 | 
[V:2] A2A2G4 | 
[V:3] c4B4 | 
[V:4] F,,4z4 | 
[V:1] F2A3GEF | 
[V:2] F4z4 | 
[V:3] c8 :
[V:4] F,4C,3D, | 
[V:1] G4C3D | 
[V:2] B4A4 | 
[V:3] G4A4 | 
[V:4] E,F,G,4F,2 | 
[V:1] EFG3EF2- | 
[V:2] B2G4A2- | 
[V:3] G4c4- :
[V:4] G,F,E,D,C,2F,2- | 
[V:1] FGE2F2D2 | 
[V:2] AGG4F2 | 
[V:3] c4=B4 | 
[V:4] F,E,C,2D,4 | 
[V:1] E3FG2A2- | 
[V:2] G4z4 | 
[V:3] c8 :
[V:4] C,8 | 
[V:1] AGFEF2ED | 
[V:2] z8 | 
[V:3] F8 | 
[V:4] D,6C,B,, | 
[V:1] C2F4E2 | 
[V:2] z8 | 
[V:3] A4G4 :
[V:4] A,,2F,,2C,4 | 
[V:1] F2D2C4 | 
[V:2] B4A4 | 
[V:3] F8 | 
[V:4] D,2B,,2F,4 | 
[V:1] D4E2C2- | 
[V:2] B4G2A2- | 
[V:3] z4c4 :
[V:4] z2G,2E,2F,2- | 
[V:1] CDEFD2F2 | 
[V:2] AGE2F4 | 
[V:3] A4B4 | 
[V:4] F,E,C,2D,4 | 
[V:1] E8 ||  
[V:2] G8 ||  
[V:3] c8 ||  
[V:4] C,8 ||  
[V:1]  [K:F] [K:clef=treble][M:2/1]z8 | 
[V:2]  [K:F] [K:clef=treble-8][M:2/1]A4G2c2- | 
[V:3]  [K:F] [K:clef=treble-8][M:2/1]c8 | 
[V:4]  [K:F] [K:clef=bass][M:2/1]F,4E,2F,2 | 
[V:1] z8 | 
[V:2] c2=B2c2e2 | 
[V:3] f4e2c2 | 
[V:4] D,4C,4 | 
[V:1] z8 | 
[V:2] d2cBA2F2 | 
[V:3] B4c4 | 
[V:4] z4z2F,2- | 
[V:1] z8 | 
[V:2] c6A2- | 
[V:3] z2G2A2c2- | 
[V:4] F,2E,2F,4 | 
[V:1] z8 | 
[V:2] A2G2c4 | 
[V:3] c2B2A2F2 | 
[V:4] z8 | 
[V:1] z8 | 
[V:2] B2A2G4 | 
[V:3] G2A2B4 | 
[V:4] z2F,4E,2 | 
[V:1] z8 | 
[V:2] F2f4e2 | 
[V:3] A4z4 | 
[V:4] F,2D,2C,4 | 
[V:1] z8 | 
[V:2] f2B4AG | 
[V:3] d8 | 
[V:4] z8 | 
[V:1] z8 | 
[V:2] A2F2G4 | 
[V:3] c2A2B4 | 
[V:4] z2F,4E,2 | 
[V:1] z8 | 
[V:2] F2f4e2 | 
[V:3] A4z2G2 | 
[V:4] F,2D,2C,4 | 
[V:1] z8 | 
[V:2] f4z2c2 | 
[V:3] F4B2A2 | 
[V:4] z2F,2E,2F,2 | 
[V:1] z8 | 
[V:2] d2f3ea2- | 
[V:3] F4A2c2- | 
[V:4] D,4z4 | 
[V:1] z8 | 
[V:2] a2g3ff2- | 
[V:3] c2B2A4 | 
[V:4] z8 | 
[V:1] z8 | 
[V:2] f2e2f3e | 
[V:3] G4F4- | 
[V:4] z8 | 
[V:1] z8 | 
[V:2] d2c3BAG | 
[V:3] F4z2c2- | 
[V:4] z2F,2E,2F,2 | 
[V:1] z8 | 
[V:2] F3GAGc2- | 
[V:3] c2B2c4 | 
[V:4] D,4C,4 | 
[V:1] z8 | 
[V:2] c2B2c2A2 | 
[V:3] d4c4- | 
[V:4] z4z2F,2 | 
[V:1] z8 | 
[V:2] G2c4=B2 | 
[V:3] c4f4 | 
[V:4] E,2F,2D,4 | 
[V:1] z8 | 
[V:2] c3BG2A2- | 
[V:3] e6c2- | 
[V:4] C,4z4 | 
[V:1] z8 | 
[V:2] A2F2G2A2 | 
[V:3] c2f2e2d2- | 
[V:4] z4z2F,2 | 
[V:1] z8 | 
[V:2] z2F4f2- | 
[V:3] dcc4=B2 | 
[V:4] E,2F,2D,4 | 
[V:1] z8 | 
[V:2] f2e2f3e | 
[V:3] c4F4 | 
[V:4] C,4z2F,2- | 
[V:1] z8 | 
[V:2] c4z2f2- | 
[V:3] A2G2F4 | 
[V:4] F,2E,2F,2D,2 | 
[V:1] z8 | 
[V:2] f2e2f2d2 | 
[V:3] z2c2A2B2 | 
[V:4] C,4z4 | 
[V:1] z8 | 
[V:2] e3fg2a2- | 
[V:3] c8 | 
[V:4] z4z2F,2- | 
[V:1] z8 | 
[V:2] a2g2f4 | 
[V:3] z2G2A2B2 | 
[V:4] F,2E,2F,2D,2 | 
[V:1] z8 | 
[V:2] e2a4g2 | 
[V:3] c4z2G2 | 
[V:4] C,2F,4E,2 | 
[V:1] z8 | 
[V:2] f4e2g2- | 
[V:3] A2B2c3B | 
[V:4] F,2D,2C,4 | 
[V:1] z8 | 
[V:2] gfd3cA2 | 
[V:3] G2F2A4 | 
[V:4] z4z2F,2- | 
[V:1] z8 | 
[V:2] B4A2F2 | 
[V:3] G4z2B2 | 
[V:4] F,2E,2F,2D,2 | 
[V:1] z8 | 
[V:2] c3de2f2 | 
[V:3] A2c4A2 | 
[V:4] C,4z2F,2- | 
[V:1] z8 | 
[V:2] g4a2gf | 
[V:3] G4z2F2 | 
[V:4] F,2E,2F,2D,2 | 
[V:1] z8 | 
[V:2] g2f4e2 | 
[V:3] E2F2G4 | 
[V:4] C,2A,,2B,,2C,2 | 
[V:1] z8 | 
[V:2] f3edcd2- | 
[V:3] F8- | 
[V:4] F,,4z2B,,2- | 
[V:1] z8 | 
[V:2] d2c2d4 | 
[V:3] F8- | 
[V:4] B,,2A,,2B,,4 | 
[V:1] z8 ||  
[V:2] c4A4 ||  
[V:3] F8 ||  
[V:4] F,,8 ||  
[V:1]  [K:F] [K:clef=treble][M:2/1]A4A2A2 | 
[V:2]  [K:F] [K:clef=treble-8][M:2/1]f4f2f2 | 
[V:3]  [K:F] [K:clef=treble-8][M:2/1]c8- :
[V:4]  [K:F] [K:clef=bass][M:2/1]F,4F,2F,2 | 
[V:1] G4G4 | 
[V:2] e4e4 | 
[V:3] c8 :
[V:4] C,4C,4 | 
[V:1] F2F2E4 | 
[V:2] d4c4 | 
[V:3] A8 | 
[V:4] D,4A,,4 | 
[V:1] z2A3GFE | 
[V:2] d2f3edc | 
[V:3] F8 :
[V:4] B,,2A,,2F,,4 | 
[V:1] D4E2G2- | 
[V:2] B4c4 | 
[V:3] G8 :
[V:4] z4C,4 | 
[V:1] GFF4E2 | 
[V:2] z4c4 | 
[V:3] B4A2G2 | 
[V:4] B,,4C,4 | 
[V:1] F2A4B2 | 
[V:2] A2f3ed2 | 
[V:3] F8 :
[V:4] D,6B,,2 | 
[V:1] c2C2D2E2 | 
[V:2] c4B2AG | 
[V:3] z4G4 :
[V:4] A,,4G,,4 | 
[V:1] F6ED | 
[V:2] F2A4G2 | 
[V:3] A4B4 | 
[V:4] D,4B,,4 | 
[V:1] F2E2C2c2 | 
[V:2] A4E2A2- | 
[V:3] c8- :
[V:4] A,,8 | 
[V:1] A2c3BA2 | 
[V:2] A2GFE2c2 | 
[V:3] c8 :
[V:4] z4A,,4 | 
[V:1] G2F4E2 | 
[V:2] B2A2G4 | 
[V:3] z8 | 
[V:4] B,,4C,4 | 
[V:1] F4z4 | 
[V:2] F6G2 | 
[V:3] f8 :
[V:4] D,8 | 
[V:1] D8 | 
[V:2] A4B4 | 
[V:3] f8 :
[V:4] D,4B,,4 | 
[V:1] C4C4 | 
[V:2] G4A4 | 
[V:3] e8 | 
[V:4] C,4A,,4 | 
[V:1] B,4B,4 | 
[V:2] F4G4 | 
[V:3] d8 :
[V:4] B,,4G,,4 | 
[V:1] A,4z4 | 
[V:2] z2F2G2E2 | 
[V:3] c6B2 :
[V:4] A,,2A,3G,G,2- | 
[V:1] z8 | 
[V:2] F2D2E2C2 | 
[V:3] A4G4 | 
[V:4] G,F,F,3E,E,2- | 
[V:1] z4z2c2- | 
[V:2] D2B,2C2A,2 | 
[V:3] F4E4 :
[V:4] E,D,D,3C,C,2 | 
[V:1] cBA4GF | 
[V:2] C8 | 
[V:3] A8 :
[V:4] A,,4F,,4 | 
[V:1] E2F4E2 | 
[V:2] z4c4 | 
[V:3] G8 | 
[V:4] C,8 | 
[V:1] F6ED | 
[V:2] c6B2 | 
[V:3] F8- :
[V:4] F,,4z2B,,2 | 
[V:1] C4D4 | 
[V:2] c2A2B4 | 
[V:3] F8- :
[V:4] A,,2F,,2B,,4 | 
[V:1] C2c3BA2- | 
[V:2] A6GF | 
[V:3] F8 | 
[V:4] F,,4z2F,2 | 
[V:1] AGG4F2 | 
[V:2] G4A4 | 
[V:3] z4c4- :
[V:4] E,2C,2F,4 | 
[V:1] G4z4 | 
[V:2] G8 | 
[V:3] c4B4 :
[V:4] C,4z4 | 
[V:1] (3:2:2G8B4- | 
[V:2] (3:2:2c8d4- | 
[V:3] G8 | 
[V:4] (3:2:2C,8B,,4- | 
[V:1] (3:2:2B4A8 | 
[V:2] (3:2:2d4d8 | 
[V:3] F8 :
[V:4] (3:2:2B,,4D,8 | 
[V:1] (3:2:2G8F4- | 
[V:2] d8- | 
[V:3] B8 :
[V:4] (3:2:2G,,8D,4- | 
[V:1] (3:2:2F4F8 | 
[V:2] (3:2:2d4c8 | 
[V:3] A8 | 
[V:4] (3:2:2D,4F,8 | 
[V:1] (3E6F2G4 | 
[V:2] (3:2:2c8G4- | 
[V:3] G4c4- :
[V:4] (3:2:2C,8E,4- | 
[V:1] (3E4F4D4 | 
[V:2] (3:2:2G4F8 | 
[V:3] c4=B4 :
[V:4] (3:2:2E,4D,8 | 
[V:1] E6DC | 
[V:2] G4z2c2 | 
[V:3] c8 | 
[V:4] C,6A,,2 | 
[V:1] D2E4C2 | 
[V:2] B2G2c4 | 
[V:3] G4A4 :
[V:4] B,,2C,4A,,2 | 
[V:1] D2E3DE2 | 
[V:2] B2G2A4 | 
[V:3] G4c4- :
[V:4] B,,2C,3B,,A,,G,, | 
[V:1] F2C2D4 | 
[V:2] z8 | 
[V:3] c4=B4 | 
[V:4] F,,2A,,2G,,4 | 
[V:1] (3C4z4c4 | 
[V:2] (3:2:2e8e4 | 
[V:3] c8 :
[V:4] [M:3/3](3z4z4C,4 | 
[V:1] (3:2:2A8B4 | 
[V:2] (3f6e2d4 | 
[V:3] F8 :
[V:4] (3D,6C,2B,,4 | 
[V:1] (3c6B2G4 | 
[V:2] (3c4e6d2 | 
[V:3] A4G4 | 
[V:4] (3A,,4C,4E,4 | 
[V:1] (3:2:2A8B4 | 
[V:2] (3f6e2d4 | 
[V:3] F8 :
[V:4] (3:2:2D,8B,,4 | 
[V:1] (3c6B2G4 | 
[V:2] (3c4e6d2 | 
[V:3] z4c4 :
[V:4] (3F,4C,4E,4 | 
[V:1] (3A6G2F4 | 
[V:2] (3:2:2c4d8 | 
[V:3] A4B4 | 
[V:4] (3:2:2F,4D,8 | 
[V:1] (3E4c6B2 | 
[V:2] (3G6A2E4- | 
[V:3] c8- :
[V:4] (3C,6A,,2A,,4- | 
[V:1] (3:2:2A8G4 | 
[V:2] (3:2:4E2F2F4E4 | 
[V:3] c8 :
[V:4] (3:2:4A,,2F,,2F,,4C,4 | 
[V:1] (3:2:2A4B8 | 
[V:2] (3:2:2F8E4 | 
[V:3] z4G4 | 
[V:4] (3:2:2A,,4G,,8 | 
[V:1] A4G4 | 
[V:2] F4z4 | 
[V:3] A4B4 :
[V:4] [M:2/1]F,,4z4 | 
[V:1] A6G2- | 
[V:2] F3GABc2- | 
[V:3] c8 :
[V:4] F,6E,2 | 
[V:1] GCF4E2 | 
[V:2] c2B2c4 | 
[V:3] z4G4 | 
[V:4] D,4C,4 | 
[V:1] F4z2F2 | 
[V:2] c4d4 | 
[V:3] A4B4 :
[V:4] F,4B,,4 | 
[V:1] F4F4 | 
[V:2] A6F2 | 
[V:3] c6B2 :
[V:4] F,6B,,2 | 
[V:1] E4F2A2- | 
[V:2] c4d4 | 
[V:3] G4F4 | 
[V:4] C,2E,2D,2C,B,, | 
[V:1] ABc2A2GF | 
[V:2] c6c2 | 
[V:3] A8 :
[V:4] A,,4F,,4 | 
[V:1] E4z2G2- | 
[V:2] c3de2d2- | 
[V:3] G8 :
[V:4] C,6B,,2 | 
[V:1] G2F2G4 | 
[V:2] d2c2d4- | 
[V:3] z4B4 | 
[V:4] A,,4G,,4 | 
[V:1] F4G2A2- | 
[V:2] d4z2c2 | 
[V:3] A4c4- :
[V:4] D,4E,2F,2- | 
[V:1] AGG4^F2 | 
[V:2] f2e2d4 | 
[V:3] c4A4 :
[V:4] F,E,C,2D,4 | 
[V:1] G3FD2E2- | 
[V:2] B6G2 | 
[V:3] G8 | 
[V:4] G,,2G,3F,E,D, | 
[V:1] EDC4=B,2 | 
[V:2] A2G2d4 | 
[V:3] z4F4 :
[V:4] C,2E,2D,4 | 
[V:1] C2c3BAG | 
[V:2] z2G2A2c2 | 
[V:3] E4F4 :
[V:4] C,4z4 | 
[V:1] BAGFE4 | 
[V:2] B2d2c4 | 
[V:3] G8 | 
[V:4] z4C,4 | 
[V:1] F4z2C2 | 
[V:2] c6A2 | 
[V:3] F8- :
[V:4] F,,3G,,A,,2F,,2 | 
[V:1] D2D2C2A,2 | 
[V:2] B4A2c2 | 
[V:3] F8- :
[V:4] B,,2B,,2F,,2F,,2 | 
[V:1] B,2B,2A,2C2 | 
[V:2] d4c2A2 | 
[V:3] F8- | 
[V:4] B,,4z2F,,2 | 
[V:1] D4C2A,2 | 
[V:2] B4A2c2 | 
[V:3] F8- :
[V:4] B,,2B,,2F,,2F,,2 | 
[V:1] B,4A,4 | 
[V:2] d4c2A2 | 
[V:3] F8- :
[V:4] B,,4z2F,,2 | 
[V:1] z4A2A2 | 
[V:2] B4A4 | 
[V:3] F8 | 
[V:4] B,,3C,D,3E, | 
[V:1] A2A2G2A2- | 
[V:2] F2c3BAG | 
[V:3] c8- :
[V:4] F,4E,2F,2- | 
[V:1] A2GFE4 | 
[V:2] F4G4 | 
[V:3] c8 :
[V:4] F,2E,D,C,4 | 
[V:1] z2F2E2F2- | 
[V:2] F4z2A2- | 
[V:3] A8 | 
[V:4] D,4C,2D,2- | 
[V:1] F2G2A4 | 
[V:2] A2B2c4 | 
[V:3] F8 :
[V:4] D,2C,B,,A,,4 | 
[V:1] D8 | 
[V:2] B4B3A | 
[V:3] G8 :
[V:4] G,,8 | 
[V:1] D4C4 | 
[V:2] G3FE4 | 
[V:3] B4A4 | 
[V:4] G,,4A,,4 | 
[V:1] D6E2 | 
[V:2] D4F4- | 
[V:3] F8 :
[V:4] B,,6A,,G,, | 
[V:1] F4G4 | 
[V:2] F2EDC4 | 
[V:3] z4G4 :
[V:4] F,,2F,4E,2 | 
[V:1] F2A4GF | 
[V:2] z2D3EFG | 
[V:3] A4B4 | 
[V:4] F,4D,4 | 
[V:1] E8- | 
[V:2] A4G4 | 
[V:3] c8- :
[V:4] C,8- | 
[V:1] E8 ||  
[V:2] G8 ||  
[V:3] c8 ||  
[V:4] C,8 ||  
[V:1]  [K:F] [K:clef=treble][M:3/1]E6F2G4 | 
[V:2]  [K:F] [K:clef=treble-8][M:3/1]G8G4 | 
[V:3]  [K:F] [K:clef=treble-8][M:3/1]c12 | 
[V:4]  [K:F] [K:clef=bass][M:3/1]C,8C,4 | 
[V:1] A8G4 | 
[V:2] F2G2A2B2c4 | 
[V:3] f8e4 | 
[V:4] F,,4F,4C,4 | 
[V:1] E4F6D2 | 
[V:2] G8F4 | 
[V:3] c4B8 | 
[V:4] E,4D,8 | 
[V:1] E6F2G4 | 
[V:2] G4A4E4 | 
[V:3] c4z4G4 | 
[V:4] C,8C,4 | 
[V:1] C8z4 | 
[V:2] F4A4G4 | 
[V:3] A4c4B4 | 
[V:4] A,,4F,,4G,,4 | 
[V:1] c8B4 | 
[V:2] E4A4G4 | 
[V:3] A4F4G4 | 
[V:4] A,,8z4 | 
[V:1] A8G4 | 
[V:2] F4G8 | 
[V:3] A4B8 | 
[V:4] z12 | 
[V:1] A8A4 | 
[V:2] D8z4 | 
[V:3] A8z4 | 
[V:4] F,6E,2D,2C,2 | 
[V:1] B8A4 | 
[V:2] f8f4 | 
[V:3] d8c4 | 
[V:4] B,,8F,4 | 
[V:1] A8G4 | 
[V:2] f4d4e4 | 
[V:3] A4B8 | 
[V:4] F,4G,8 | 
[V:1] A8A4 | 
[V:2] f6e2f4 | 
[V:3] A8z4 | 
[V:4] D,6C,2D,4 | 
[V:1] c8B4 | 
[V:2] e6c2d2e2 | 
[V:3] A8G4 | 
[V:4] A,,8z4 | 
[V:1] A4G4F4- | 
[V:2] f4d4c4 | 
[V:3] F4B4A4 | 
[V:4] z12 | 
[V:1] F2G2A2B2c4 | 
[V:2] A8z4 | 
[V:3] F6G2A2B2 | 
[V:4] z12 | 
[V:1] c4A4G4 | 
[V:2] A8B4 | 
[V:3] c8B4 | 
[V:4] F,,8G,,4 | 
[V:1] F8E4 | 
[V:2] c4d4c4 | 
[V:3] A4G8 | 
[V:4] A,,4B,,4C,4 | 
[V:1] F8F4 | 
[V:2] A4B4A4 | 
[V:3] F8z4 | 
[V:4] D,6E,2F,4 | 
[V:1] E4F4D4 | 
[V:2] G8F4 | 
[V:3] c8=B4 | 
[V:4] C,4D,8 | 
[V:1] E4E6C2 | 
[V:2] G8A4- | 
[V:3] c12- | 
[V:4] C,12 | 
[V:1] c8=B4 | 
[V:2] A4G8 | 
[V:3] c4d8 | 
[V:4] z12 | 
[V:1] c12 | 
[V:2] A8A4 | 
[V:3] c8f4 | 
[V:4] F,8F,4 | 
[V:1] z12 | 
[V:2] B4G4A4 | 
[V:3] e4c4f4 | 
[V:4] G,4E,4D,4 | 
[V:1] z12 | 
[V:2] B8A4 | 
[V:3] e4d6c2 | 
[V:4] G,8F,4 | 
[V:1] z12 | 
[V:2] G6F2f4 | 
[V:3] c8=B4 | 
[V:4] E,4D,8 | 
[V:1] G8A4 | 
[V:2] e6c2f4- | 
[V:3] c8F4 | 
[V:4] C,8z4 | 
[V:1] c4B6G2 | 
[V:2] f2c2d4e4 | 
[V:3] A4G8 | 
[V:4] z12 | 
[V:1] A8z4 | 
[V:2] f8g4 | 
[V:3] F8z4 | 
[V:4] F,4D,4E,4 | 
[V:1] z12 | 
[V:2] a6f2g4 | 
[V:3] c4A4B4 | 
[V:4] F,8z4 | 
[V:1] G4E4F4 | 
[V:2] e4g4f4 | 
[V:3] c8z4 | 
[V:4] z4C,4D,4 | 
[V:1] G4z4z4 | 
[V:2] e4c4d4 | 
[V:3] G4A4B4 | 
[V:4] E,4F,4z4 | 
[V:1] G4E4F4 | 
[V:2] e4g4f4 | 
[V:3] c8z4 | 
[V:4] z4C,4D,4 | 
[V:1] G4z4G4 | 
[V:2] e4c4d4 | 
[V:3] G4A4B4 | 
[V:4] E,4F,4z4 | 
[V:1] G4A4B4 | 
[V:2] e8d4 | 
[V:3] c6B2G4 | 
[V:4] z4z4G,4- | 
[V:1] G8^F4 | 
[V:2] d8d4 | 
[V:3] B4A8 | 
[V:4] G,4D,8 | 
[V:1] G8G4 | 
[V:2] B6c2d2e2 | 
[V:3] G6A2B4 | 
[V:4] G,,8G,,4 | 
[V:1] A4G6F2 | 
[V:2] f4e4c4 | 
[V:3] A4c8 | 
[V:4] D,4E,4F,4- | 
[V:1] F8E4 | 
[V:2] c12 | 
[V:3] A4G8 | 
[V:4] F,4C,8 | 
[V:1] F6G2A4 | 
[V:2] A8z4 | 
[V:3] F8z4 | 
[V:4] D,6E,2F,4 | 
[V:1] D6C2D2C2 | 
[V:2] B6A2B2A2 | 
[V:3] F6E2F2E2 | 
[V:4] B,,6C,2B,,2C,2 | 
[V:1] D6E2F4- | 
[V:2] B8c4 | 
[V:3] F4G4A4- | 
[V:4] B,,4G,,4F,,4 | 
[V:1] F2G2F2E2A4 | 
[V:2] c4d2e2c4 | 
[V:3] A2G2B2c2A4 | 
[V:4] F,2E,2D,2C,2F,4 | 
[V:1] G2F4E2E2D2 | 
[V:2] d4c8 | 
[V:3] B4G8 | 
[V:4] B,,4C,8 | 
[V:1] F12 |]  
[V:2] c12 |]  
[V:3] F12 |]  
[V:4] F,,12 |]  



